polaris-icons/icons/new-icons/PasskeyMajor.svg

<svg width="20" height="20" viewBox="0 0 20 20" fill="none" xmlns="http://www.w3.org/2000/svg">
<path fill-rule="evenodd" clip-rule="evenodd" d="M9 3C7.067 3 5.5 4.567 5.5 6.5C5.5 8.433 7.067 10 9 10C10.933 10 12.5 8.433 12.5 6.5C12.5 4.567 10.933 3 9 3ZM7 6.5C7 5.39543 7.89543 4.5 9 4.5C10.1046 4.5 11 5.39543 11 6.5C11 7.60457 10.1046 8.5 9 8.5C7.89543 8.5 7 7.60457 7 6.5Z" fill="#4A4A4A"/>
<path d="M4.82727 14.9552C5.66915 13.4398 7.26644 12.5 8.99999 12.5C9.4142 12.5 9.74999 12.1642 9.74999 11.75C9.74999 11.3358 9.4142 11 8.99999 11C6.72169 11 4.62247 12.2352 3.51603 14.2268L3.07937 15.0128C2.58406 15.9043 3.22875 17 4.24867 17H10.25C10.6642 17 11 16.6642 11 16.25C11 15.8358 10.6642 15.5 10.25 15.5H4.52463L4.82727 14.9552Z" fill="#4A4A4A"/>
<path d="M15.125 12.5C15.6082 12.5 16 12.1082 16 11.625C16 11.1418 15.6082 10.75 15.125 10.75C14.6418 10.75 14.25 11.1418 14.25 11.625C14.25 12.1082 14.6418 12.5 15.125 12.5Z" fill="#4A4A4A"/>
<path fill-rule="evenodd" clip-rule="evenodd" d="M17.6745 14.8747C18.3217 14.4561 18.75 13.7281 18.75 12.9V11.625C18.75 9.62297 17.127 8 15.125 8C13.123 8 11.5 9.62297 11.5 11.625V12.9C11.5 13.8004 12.0064 14.5826 12.75 14.9772V16.8509C12.75 17.24 12.8635 17.6207 13.0766 17.9462L13.4986 18.591C14.1635 19.6068 15.5727 19.8007 16.4873 19.0023L17.0399 18.5198C17.7394 17.9091 17.9009 16.9369 17.5338 16.1584C17.7228 15.7633 17.7765 15.3088 17.6745 14.8747ZM14.2026 13.9609C14.1351 13.8353 14.0025 13.75 13.85 13.75C13.3806 13.75 13 13.3694 13 12.9V11.625C13 10.4514 13.9514 9.5 15.125 9.5C16.2986 9.5 17.25 10.4514 17.25 11.625V12.9C17.25 13.3694 16.8694 13.75 16.4 13.75H16.1818C15.9938 13.75 15.8301 13.8537 15.7447 14.0071C15.7202 14.051 15.7021 14.0991 15.6918 14.15C15.6853 14.1823 15.6818 14.2158 15.6818 14.25V14.3215C15.6818 14.4106 15.7056 14.4975 15.75 14.5736C15.7632 14.5961 15.7781 14.6177 15.7948 14.6381L16.1262 15.0431C16.1487 15.0706 16.1672 15.0998 16.1818 15.13C16.2004 15.1685 16.2129 15.2087 16.2194 15.2493C16.2497 15.4405 16.15 15.6426 15.9533 15.7227C15.8642 15.759 15.7958 15.8192 15.75 15.8915C15.6613 16.0314 15.657 16.2166 15.75 16.3612C15.7742 16.3988 15.8049 16.4336 15.8424 16.4642L16.0405 16.6256C16.2807 16.8213 16.2869 17.1861 16.0535 17.3898L15.5008 17.8723C15.2722 18.0719 14.9199 18.0234 14.7536 17.7695L14.3316 17.1247C14.2784 17.0434 14.25 16.9482 14.25 16.8509V14.15C14.25 14.0816 14.2328 14.0172 14.2026 13.9609Z" fill="#4A4A4A"/>
</svg>

<svg viewBox="0 0 20 20" xmlns="http://www.w3.org/2000/svg"><path fill-rule="evenodd" d="M9 3a3.5 3.5 0 1 0 0 7 3.5 3.5 0 0 0 0-7Zm-2 3.5a2 2 0 1 1 4 0 2 2 0 0 1-4 0Z" fill="#5C5F62"/><path d="M4.827 14.955a4.773 4.773 0 0 1 4.173-2.455.75.75 0 0 0 0-1.5 6.273 6.273 0 0 0-5.484 3.227l-.437.786a1.338 1.338 0 0 0 1.17 1.987h6.001a.75.75 0 0 0 0-1.5h-5.725l.302-.545Z" fill="#5C5F62"/><path d="M15.125 12.5a.875.875 0 1 0 0-1.75.875.875 0 0 0 0 1.75Z" fill="#5C5F62"/><path fill-rule="evenodd" d="M17.674 14.875a2.348 2.348 0 0 0 1.076-1.975v-1.275a3.625 3.625 0 0 0-7.25 0v1.275c0 .9.506 1.683 1.25 2.077v1.874a2 2 0 0 0 .327 1.095l.422.645a2 2 0 0 0 2.988.411l.553-.482a2 2 0 0 0 .494-2.362c.189-.395.242-.85.14-1.283Zm-3.471-.914a.4.4 0 0 0-.353-.211.85.85 0 0 1-.85-.85v-1.275a2.125 2.125 0 0 1 4.25 0v1.275c0 .47-.38.85-.85.85h-.218a.5.5 0 0 0-.5.5v.072a.5.5 0 0 0 .113.316l.331.405a.439.439 0 0 1 .093.206.437.437 0 0 1-.266.474.439.439 0 0 0-.11.742l.198.16a.5.5 0 0 1 .012.765l-.552.482a.5.5 0 0 1-.747-.102l-.422-.645a.5.5 0 0 1-.082-.274v-2.701a.399.399 0 0 0-.047-.19Z" fill="#5C5F62"/></svg>
